X:10
T: Als Gott den Adam hat erschaffen, S. 42
N: S0073V
O: Luxemburg
S: Die Bauernhochzeit in frheren Zeiten]
R: Hochzeitslied, religises Ehestandslied]
M: 3/4
L: 1/16
K: F
A2 | G2A2c2c2d2c2 | c8z4 |
A2A2G4A4 | B2A2G4
G4 | G8B4 | A4z4
A4 | G2A2B6B2 | A2G2c6
c2 | c2c2d6B2 | AAG2c6
AA | G8B4 | A8
c2B2 | A8G4 | F4z6

@@@ Tune index: 8064
